src/icons/azure-load-balancers.svg

<?xml version="1.0" encoding="UTF-8"?>
<svg xmlns="http://www.w3.org/2000/svg" xmlns:xlink="http://www.w3.org/1999/xlink" width="32" height="32" viewBox="0 0 32 32" version="1.1">
<defs>
<linearGradient id="linear0" gradientUnits="userSpaceOnUse" x1="9" y1="19.85" x2="9" y2="-1.02" gradientTransform="matrix(1.7149,0,0,1.7149,0.617,0.617)">
<stop offset="0" style="stop-color:rgb(36.862746%,58.823532%,14.117648%);stop-opacity:1;"/>
<stop offset="0.02" style="stop-color:rgb(37.254903%,59.215689%,14.117648%);stop-opacity:1;"/>
<stop offset="1" style="stop-color:rgb(46.27451%,73.725492%,17.647059%);stop-opacity:1;"/>
</linearGradient>
</defs>
<g id="surface1">
<path style=" stroke:none;fill-rule:nonzero;fill:url(#linear0);" d="M 0.925781 15.3125 L 15.3125 0.925781 C 15.507812 0.726562 15.773438 0.613281 16.050781 0.613281 C 16.328125 0.613281 16.59375 0.726562 16.789062 0.925781 L 31.175781 15.3125 C 31.375 15.507812 31.484375 15.773438 31.484375 16.050781 C 31.484375 16.328125 31.375 16.59375 31.175781 16.789062 L 16.773438 31.195312 C 16.371094 31.585938 15.730469 31.585938 15.332031 31.195312 L 0.925781 16.789062 C 0.726562 16.597656 0.613281 16.328125 0.613281 16.050781 C 0.613281 15.773438 0.726562 15.507812 0.925781 15.3125 M 0.925781 15.3125 "/>
<path style=" stroke:none;fill-rule:nonzero;fill:rgb(70.588237%,92.54902%,21.176471%);fill-opacity:1;" d="M 19.824219 7.476562 L 16.1875 3.859375 C 16.109375 3.789062 15.992188 3.789062 15.914062 3.859375 L 12.277344 7.476562 C 12.210938 7.523438 12.1875 7.613281 12.21875 7.6875 C 12.25 7.761719 12.332031 7.804688 12.414062 7.785156 L 14.542969 7.785156 C 14.648438 7.785156 14.730469 7.871094 14.730469 7.972656 L 14.730469 11.402344 C 14.730469 11.507812 14.8125 11.59375 14.917969 11.59375 L 17.183594 11.59375 C 17.234375 11.59375 17.28125 11.574219 17.316406 11.535156 C 17.351562 11.5 17.371094 11.453125 17.371094 11.402344 L 17.371094 7.972656 C 17.371094 7.867188 17.457031 7.785156 17.5625 7.785156 L 19.6875 7.785156 C 19.769531 7.804688 19.851562 7.765625 19.886719 7.6875 C 19.917969 7.609375 19.890625 7.523438 19.824219 7.476562 M 7.476562 11.953125 L 3.875 15.605469 C 3.808594 15.679688 3.808594 15.789062 3.875 15.863281 L 7.476562 19.480469 C 7.53125 19.535156 7.613281 19.554688 7.6875 19.527344 C 7.757812 19.496094 7.804688 19.421875 7.804688 19.34375 L 7.804688 17.234375 C 7.804688 17.128906 7.886719 17.046875 7.992188 17.046875 L 11.421875 17.046875 C 11.46875 17.046875 11.515625 17.027344 11.550781 16.992188 C 11.582031 16.953125 11.597656 16.90625 11.59375 16.859375 L 11.59375 14.59375 C 11.621094 14.546875 11.625 14.484375 11.601562 14.433594 C 11.578125 14.382812 11.527344 14.34375 11.472656 14.335938 L 8.042969 14.335938 C 7.996094 14.339844 7.949219 14.324219 7.910156 14.292969 C 7.875 14.261719 7.855469 14.214844 7.855469 14.164062 L 7.855469 12.089844 C 7.894531 11.984375 7.839844 11.871094 7.734375 11.832031 C 7.6875 11.8125 7.628906 11.816406 7.582031 11.839844 C 7.53125 11.859375 7.496094 11.902344 7.476562 11.953125 M 24.761719 19.480469 L 28.414062 15.84375 C 28.484375 15.773438 28.484375 15.660156 28.414062 15.589844 L 24.761719 11.953125 C 24.707031 11.90625 24.632812 11.898438 24.566406 11.925781 C 24.5 11.953125 24.457031 12.019531 24.453125 12.089844 L 24.453125 14.234375 C 24.453125 14.28125 24.433594 14.328125 24.398438 14.363281 C 24.363281 14.394531 24.316406 14.410156 24.265625 14.40625 L 20.835938 14.40625 C 20.789062 14.40625 20.742188 14.425781 20.707031 14.460938 C 20.675781 14.496094 20.660156 14.546875 20.664062 14.59375 L 20.664062 16.859375 C 20.660156 16.90625 20.675781 16.953125 20.710938 16.992188 C 20.742188 17.027344 20.789062 17.046875 20.835938 17.046875 L 24.265625 17.046875 C 24.371094 17.046875 24.453125 17.128906 24.453125 17.234375 L 24.453125 19.359375 C 24.464844 19.429688 24.507812 19.488281 24.574219 19.511719 C 24.636719 19.539062 24.710938 19.527344 24.761719 19.480469 M 24.761719 19.480469 "/>
<path style=" stroke:none;fill-rule:nonzero;fill:rgb(100%,100%,100%);fill-opacity:1;" d="M 20.835938 16.050781 C 20.851562 13.570312 18.972656 11.492188 16.503906 11.257812 C 14.035156 11.023438 11.796875 12.710938 11.347656 15.148438 C 10.894531 17.585938 12.378906 19.964844 14.765625 20.628906 L 14.765625 22.257812 C 13.5625 22.878906 12.941406 24.242188 13.261719 25.554688 C 13.582031 26.871094 14.757812 27.796875 16.113281 27.796875 C 17.464844 27.796875 18.640625 26.871094 18.960938 25.554688 C 19.28125 24.242188 18.660156 22.878906 17.457031 22.257812 L 17.457031 20.542969 C 19.445312 19.945312 20.8125 18.125 20.835938 16.050781 M 20.835938 16.050781 "/>
<path style=" stroke:none;fill-rule:nonzero;fill:rgb(36.862746%,62.7451%,93.725491%);fill-opacity:1;" d="M 18.847656 16.035156 C 18.820312 17.550781 17.582031 18.761719 16.070312 18.761719 C 14.554688 18.761719 13.316406 17.550781 13.289062 16.035156 C 13.316406 14.519531 14.554688 13.308594 16.070312 13.308594 C 17.582031 13.308594 18.820312 14.519531 18.847656 16.035156 M 18.847656 16.035156 "/>
</g>
</svg>

<svg role="img" viewBox="0 0 32 32" xmlns="http://www.w3.org/2000/svg" xmlns:xlink="http://www.w3.org/1999/xlink"><defs><linearGradient gradientTransform="translate(.617 .617)scale(1.7149)" gradientUnits="userSpaceOnUse" id="a" x1="9" x2="9" y1="19.85" y2="-1.02"><stop offset="0" style="stop-color:rgb(36.862746%,58.823532%,14.117648%);stop-opacity:1"/><stop offset=".02" style="stop-color:rgb(37.254903%,59.215689%,14.117648%);stop-opacity:1"/><stop offset="1" style="stop-color:rgb(46.27451%,73.725492%,17.647059%);stop-opacity:1"/></linearGradient></defs><path d="M.926 15.313 15.313.925a1.03 1.03 0 0 1 1.476 0l14.387 14.387a1.033 1.033 0 0 1 0 1.476L16.773 31.195c-.402.39-1.043.39-1.441 0L.926 16.79a1.03 1.03 0 0 1 0-1.476m0 0" style="stroke:none;fill-rule:nonzero;fill:url(#a)"/><path d="m19.824 7.477-3.637-3.618a.204.204 0 0 0-.273 0l-3.637 3.618a.172.172 0 0 0-.058.21.167.167 0 0 0 .195.098h2.129c.105 0 .187.086.187.188v3.43a.19.19 0 0 0 .188.19h2.266a.188.188 0 0 0 .187-.19v-3.43a.19.19 0 0 1 .192-.188h2.125c.082.02.164-.02.199-.098a.173.173 0 0 0-.063-.21M7.477 11.953l-3.602 3.652a.192.192 0 0 0 0 .258l3.602 3.617a.193.193 0 0 0 .21.047.197.197 0 0 0 .118-.183v-2.11c0-.105.082-.187.187-.187h3.43a.173.173 0 0 0 .172-.188v-2.265a.178.178 0 0 0 .008-.16.174.174 0 0 0-.13-.098H8.044a.182.182 0 0 1-.133-.043.17.17 0 0 1-.055-.129V12.09a.203.203 0 0 0-.12-.258.2.2 0 0 0-.258.121m17.285 7.527 3.652-3.636a.18.18 0 0 0 0-.254l-3.652-3.637a.189.189 0 0 0-.309.137v2.144c0 .047-.02.094-.055.13a.182.182 0 0 1-.132.042h-3.43a.184.184 0 0 0-.129.055.182.182 0 0 0-.043.133v2.265a.173.173 0 0 0 .172.188h3.43c.105 0 .187.082.187.187v2.125a.19.19 0 0 0 .121.153.174.174 0 0 0 .188-.032m0 0" style="stroke:none;fill-rule:nonzero;fill:rgb(70.588237%,92.54902%,21.176471%);fill-opacity:1"/><path d="M20.836 16.05a4.785 4.785 0 1 0-6.07 4.579v1.629a2.933 2.933 0 1 0 2.691 0v-1.715a4.746 4.746 0 0 0 3.379-4.492m0 0" style="stroke:none;fill-rule:nonzero;fill:rgb(100%,100%,100%);fill-opacity:1"/><path d="M18.848 16.035a2.78 2.78 0 0 1-5.559 0 2.78 2.78 0 0 1 5.559 0m0 0" style="stroke:none;fill-rule:nonzero;fill:rgb(36.862746%,62.7451%,93.725491%);fill-opacity:1"/></svg>
